assets/offering/forkopsinformation.svg

<svg width="48" height="48" viewBox="0 0 48 48" fill="none" xmlns="http://www.w3.org/2000/svg">
<mask id="mask0" mask-type="alpha" maskUnits="userSpaceOnUse" x="0" y="0" width="48" height="48">
<path fill-rule="evenodd" clip-rule="evenodd" d="M0 0H47.9999V48H0V0Z" fill="white"/>
</mask>
<g mask="url(#mask0)">
<path fill-rule="evenodd" clip-rule="evenodd" d="M48 24C48 37.255 37.255 48 24 48C10.745 48 0 37.255 0 24C0 10.745 10.745 0 24 0C37.255 0 48 10.745 48 24Z" fill="#0F007A"/>
</g>
<path fill-rule="evenodd" clip-rule="evenodd" d="M23.5527 18.9765C23.5527 18.6345 23.8167 18.3715 24.1777 18.3715C24.5297 18.3715 24.8027 18.6545 24.8027 18.9865C24.8027 19.3285 24.5387 19.6015 24.1777 19.6015C23.8167 19.6015 23.5527 19.3185 23.5527 18.9765ZM22.1367 24.9045C22.1367 24.8165 22.1567 24.7085 22.1957 24.5815L23.1527 21.1645C23.2497 20.8315 23.1427 20.6755 22.7327 20.7245L22.5667 20.7445L22.5957 20.6465L24.3927 20.1875L23.2887 24.1325C23.2207 24.3575 23.2987 24.4555 23.4457 24.4555C23.6507 24.4555 24.0317 24.1225 24.4117 23.6345L24.5097 23.7035C23.9337 24.4845 23.1527 25.3535 22.5567 25.3535C22.3417 25.3535 22.1367 25.2465 22.1367 24.9045Z" fill="white"/>
<path fill-rule="evenodd" clip-rule="evenodd" d="M17.9618 27.2012H32.2578V16.2192C32.2578 14.7742 32.9958 13.8052 34.0958 13.8052H35.1488C35.6648 13.8052 36.0848 13.3862 36.0848 12.8702C36.0848 12.3542 35.6648 11.9342 35.1488 11.9342H35.0378C34.3508 11.9062 32.4218 12.0242 31.6798 12.7492C30.8738 13.5342 30.4988 14.1172 30.4088 15.4932C30.3628 16.1802 29.7938 16.7192 29.1118 16.7192H13.1558C13.0248 16.7192 12.9478 16.7942 12.9148 16.8402C12.8808 16.8852 12.8288 16.9792 12.8658 17.1052L15.2308 25.2492C15.6468 26.4062 16.6538 27.1452 17.8218 27.1892L17.9618 27.2012ZM27.5918 33.9412H15.3438V32.9412H27.5918C29.6358 32.9412 31.2168 31.7462 31.7218 30.5652C32.2448 29.3452 32.2578 28.2852 32.2578 28.2742V28.2012L17.6868 28.1842C16.1698 28.0892 14.8668 27.1252 14.3338 25.6992L14.3038 25.6432L11.9048 17.3832C11.7908 16.9862 11.8668 16.5692 12.1148 16.2382C12.3628 15.9082 12.7428 15.7192 13.1558 15.7192H29.1118C29.2688 15.7192 29.3998 15.5912 29.4108 15.4282C29.5218 13.7442 30.0258 12.9642 30.9818 12.0332C32.1598 10.8832 34.7738 10.9242 35.0668 10.9342H35.0678C36.2168 10.9342 37.0848 11.8032 37.0848 12.8702C37.0848 13.9362 36.2168 14.8052 35.1488 14.8052H34.0958C33.4348 14.8052 33.2578 15.6932 33.2578 16.2192V28.2762C33.2578 28.3282 33.2488 29.5412 32.6418 30.9592C32.0258 32.3952 30.1848 33.9412 27.5918 33.9412Z" fill="white"/>
<path fill-rule="evenodd" clip-rule="evenodd" d="M19.0149 37.2383C19.0149 36.4363 18.3649 35.7863 17.5619 35.7863C16.7599 35.7863 16.1099 36.4363 16.1099 37.2383C16.1099 38.0413 16.7599 38.6913 17.5619 38.6913C18.3649 38.6913 19.0149 38.0413 19.0149 37.2383Z" fill="white"/>
<path fill-rule="evenodd" clip-rule="evenodd" d="M29.8371 37.2383C29.8371 36.4363 29.1871 35.7863 28.3841 35.7863C27.5821 35.7863 26.9321 36.4363 26.9321 37.2383C26.9321 38.0413 27.5821 38.6913 28.3841 38.6913C29.1871 38.6913 29.8371 38.0413 29.8371 37.2383Z" fill="white"/>
</svg>

<svg width="48" height="48" viewBox="0 0 48 48" fill="none" xmlns="http://www.w3.org/2000/svg"><mask id="a" maskUnits="userSpaceOnUse" x="0" y="0" width="48" height="48"><path fill-rule="evenodd" clip-rule="evenodd" d="M0 0h48v48H0V0z" fill="#fff"/></mask><g mask="url(#a)"><path fill-rule="evenodd" clip-rule="evenodd" d="M48 24c0 13.255-10.745 24-24 24S0 37.255 0 24 10.745 0 24 0s24 10.745 24 24z" fill="#0F007A"/></g><path fill-rule="evenodd" clip-rule="evenodd" d="M23.553 18.977c0-.343.264-.605.625-.605a.62.62 0 01.625.614.609.609 0 01-.625.616.617.617 0 01-.625-.625zm-1.416 5.927c0-.087.02-.195.059-.323l.957-3.416c.097-.334-.01-.49-.42-.44l-.166.02.029-.099 1.797-.459-1.104 3.945c-.068.226.01.323.157.323.205 0 .586-.332.966-.82l.098.068c-.576.782-1.357 1.65-1.953 1.65-.215 0-.42-.107-.42-.449z" fill="#fff"/><path fill-rule="evenodd" clip-rule="evenodd" d="M17.962 27.201h14.296V16.22c0-1.445.738-2.414 1.838-2.414h1.053a.936.936 0 000-1.87h-.111c-.687-.029-2.616.09-3.358.814-.806.785-1.181 1.368-1.271 2.744a1.31 1.31 0 01-1.297 1.226H13.156a.292.292 0 00-.241.121.293.293 0 00-.05.265l2.366 8.144c.416 1.157 1.423 1.896 2.59 1.94l.14.012zm9.63 6.74H15.344v-1h12.248c2.044 0 3.625-1.195 4.13-2.376.523-1.22.536-2.28.536-2.29V28.2l-14.571-.017a3.818 3.818 0 01-3.353-2.485l-.03-.056-2.4-8.26a1.297 1.297 0 01.21-1.145c.249-.33.629-.519 1.042-.519h15.956a.306.306 0 00.299-.29c.11-1.685.615-2.465 1.57-3.396 1.179-1.15 3.793-1.109 4.086-1.099 1.15 0 2.018.87 2.018 1.936a1.938 1.938 0 01-1.936 1.935h-1.053c-.661 0-.838.888-.838 1.414v12.057c0 .052-.01 1.265-.616 2.683-.616 1.436-2.457 2.982-5.05 2.982zM19.015 37.238a1.452 1.452 0 10-2.904 0 1.452 1.452 0 002.904 0zM29.837 37.238a1.452 1.452 0 10-2.904 0 1.452 1.452 0 002.904 0z" fill="#fff"/></svg>
